X:1
T: Irish Rovers
T: Tune 2
R:Reel
Q: 232
K:D
M:4/4
L:1/8
A2 A2|A4 A3A|d4 d2 B2|A4 F2 D2|B,4 D2 E2|F4 E2 F2|AG3 E2 C2|D4 D3D|D4 A2 A2|
A4 A3A|d4 d2 B2|A4 F2 D2|B,4 D2 E2|F4 E2 F2|AG3 E2 C2|D4 D3D|D4 A4|
B4 G2 B2|d4 c3B|A4 d2 B2|A6 A2|B4 G2 B2|d4 c2 d2|e8|a2 g2 f2 e2|
d4 d3e|d6 B2|A4 F2 D2|B,4 D2 E2|F4 E2 F2|AG3 E2 C2|D8|D4||
